fa/won-sign.svg

<svg xmlns="http://www.w3.org/2000/svg" viewBox="0 0 512 512" height="1em" width="1em">
  <path d="M119.1 224H183l41.1-167.76C228.5 41.99 241.3 32 256 32s27.5 9.99 31 24.24L328.1 224h64.8l56.7-170.12c5.6-16.76 23.8-25.83 40.5-20.24 16.8 5.59 25.8 23.71 20.3 40.48L460.4 224H480c17.7 0 32 14.3 32 32s-14.3 32-32 32h-40.9l-56.7 170.1c-4.5 13.5-18.3 22.4-31.6 21-14.2.3-26.4-9.5-30.7-23.3L279 288h-46.9L191 455.8c-3.4 13.8-15.6 23.6-29.8 23.3-14.2 1.4-27.1-7.5-31.6-21L72.94 288H32C14.33 288 .001 273.7.001 256S14.33 224 32 224h19.6L1.643 74.12C-3.946 57.35 5.115 39.23 21.88 33.64c16.77-5.59 34.89 3.48 40.48 20.24L119.1 224zm21.3 64 15.2 45.6L167 288h-26.6zm107.7-64H263l-7-28.1-7.9 28.1zm96 64 12.3 45.6 15.2-45.6h-27.5z"/>
</svg>

<svg xmlns="http://www.w3.org/2000/svg" viewBox="0 0 512 512" height="1em" width="1em">
  <path d="M119.1 224H183L224.1 56.24C228.5 41.99 241.3 32 256 32C270.7 32 283.5 41.99 287 56.24L328.1 224H392.9L449.6 53.88C455.2 37.12 473.4 28.05 490.1 33.64C506.9 39.23 515.9 57.35 510.4 74.12L460.4 224H480C497.7 224 512 238.3 512 256C512 273.7 497.7 288 480 288H439.1L382.4 458.1C377.9 471.6 364.1 480.5 350.8 479.1C336.6 479.4 324.4 469.6 320.1 455.8L279 288H232.1L191 455.8C187.6 469.6 175.4 479.4 161.2 479.1C147 480.5 134.1 471.6 129.6 458.1L72.94 288H32C14.33 288 .001 273.7 .001 256C.001 238.3 14.33 224 32 224H51.6L1.643 74.12C-3.946 57.35 5.115 39.23 21.88 33.64C38.65 28.05 56.77 37.12 62.36 53.88L119.1 224zM140.4 288L155.6 333.6L167 288H140.4zM248.1 224H263L256 195.9L248.1 224zM344.1 288L356.4 333.6L371.6 288H344.1z"/>
</svg>
